icons/sidebar-collapse-16.svg

<svg xmlns="http://www.w3.org/2000/svg" width="16" height="16" viewBox="0 0 16 16"><path d="M6.823 7.823a.25.25 0 010 .354l-2.396 2.396A.25.25 0 014 10.396V5.604a.25.25 0 01.427-.177z"/><path d="M1.75 0h12.5C15.216 0 16 .784 16 1.75v12.5A1.75 1.75 0 0114.25 16H1.75A1.75 1.75 0 010 14.25V1.75C0 .784.784 0 1.75 0zM1.5 1.75v12.5c0 .138.112.25.25.25H9.5v-13H1.75a.25.25 0 00-.25.25zM11 14.5h3.25a.25.25 0 00.25-.25V1.75a.25.25 0 00-.25-.25H11z"/></svg>

<svg xmlns="http://www.w3.org/2000/svg" width="16" height="16" viewBox="0 0 16 16">
  <defs/>
  <path d="M6.823,7.823 C6.87,7.87 6.896,7.934 6.896,8 C6.896,8.066 6.87,8.13 6.823,8.177 L4.427,10.573 C4.27,10.731 4,10.619 4,10.396 L4,5.604 C4,5.503 4.061,5.411 4.154,5.373 C4.248,5.334 4.355,5.355 4.427,5.427 Z"/>
  <path d="M1.75,0 L14.25,0 C15.216,0 16,0.784 16,1.75 L16,14.25 C16,15.216 15.216,16 14.25,16 L1.75,16 C0.784,16 0,15.216 0,14.25 L0,1.75 C0,0.784 0.784,0 1.75,0 Z M1.5,1.75 L1.5,14.25 C1.5,14.388 1.612,14.5 1.75,14.5 L9.5,14.5 L9.5,1.5 L1.75,1.5 C1.612,1.5 1.5,1.612 1.5,1.75 Z M11,14.5 L14.25,14.5 C14.388,14.5 14.5,14.388 14.5,14.25 L14.5,1.75 C14.5,1.612 14.388,1.5 14.25,1.5 L11,1.5 Z"/>
</svg>
